tools/download-figma-icons/icons/solid/sun.svg

<svg width="24" height="24" viewBox="0 0 24 24" fill="none" xmlns="http://www.w3.org/2000/svg">
<path fill-rule="evenodd" clip-rule="evenodd" d="M11.9936 4.87267C11.5796 4.87267 11.2436 4.53742 11.2436 4.12267V0.749939C11.2436 0.335192 11.5796 -5.66752e-05 11.9936 -5.66752e-05C12.4076 -5.66752e-05 12.7436 0.335192 12.7436 0.749939V4.12267C12.7436 4.53742 12.4076 4.87267 11.9936 4.87267ZM17.6497 11.9954C17.6497 15.1154 15.1222 17.6504 11.9948 17.6504C8.86728 17.6504 6.33229 15.1154 6.33229 11.9954C6.33229 8.86796 8.86728 6.33298 11.9948 6.33298C15.1222 6.33298 17.6497 8.86796 17.6497 11.9954ZM5.89776 6.95779C6.04401 7.10404 6.23601 7.17754 6.428 7.17754C6.62 7.17754 6.812 7.10404 6.95825 6.95779C7.2515 6.66454 7.2515 6.19055 6.95825 5.8973L4.57326 3.51231C4.28077 3.21981 3.80602 3.21981 3.51277 3.51231C3.22027 3.80556 3.22027 4.28031 3.51277 4.57281L5.89776 6.95779ZM4.12273 12.7432H0.749996C0.335998 12.7432 0 12.408 0 11.9932C0 11.5785 0.335998 11.2432 0.749996 11.2432H4.12273C4.53673 11.2432 4.87273 11.5785 4.87273 11.9932C4.87273 12.408 4.53673 12.7432 4.12273 12.7432ZM3.51298 20.4739C3.65923 20.6201 3.85123 20.6936 4.04323 20.6936C4.23523 20.6936 4.42723 20.6201 4.57348 20.4739L6.95847 18.0889C7.25096 17.7964 7.25096 17.3216 6.95847 17.0284C6.66522 16.7359 6.19047 16.7359 5.89797 17.0284L3.51298 19.4134C3.21973 19.7066 3.21973 20.1806 3.51298 20.4739ZM11.9936 23.9865C11.5796 23.9865 11.2436 23.6513 11.2436 23.2365V19.8646C11.2436 19.4498 11.5796 19.1146 11.9936 19.1146C12.4076 19.1146 12.7436 19.4498 12.7436 19.8646V23.2365C12.7436 23.6513 12.4076 23.9865 11.9936 23.9865ZM19.4134 20.4739C19.5597 20.6201 19.7517 20.6936 19.9437 20.6936C20.1357 20.6936 20.3277 20.6201 20.4739 20.4739C20.7672 20.1806 20.7672 19.7066 20.4739 19.4134L18.0897 17.0284C17.7965 16.7359 17.3217 16.7359 17.0292 17.0284C16.736 17.3216 16.736 17.7964 17.0292 18.0889L19.4134 20.4739ZM23.237 12.7432H19.8642C19.4502 12.7432 19.1143 12.408 19.1143 11.9932C19.1143 11.5785 19.4502 11.2432 19.8642 11.2432H23.237C23.651 11.2432 23.987 11.5785 23.987 11.9932C23.987 12.408 23.651 12.7432 23.237 12.7432ZM17.029 6.95779C17.1753 7.10404 17.3673 7.17754 17.5593 7.17754C17.7513 7.17754 17.9433 7.10404 18.0895 6.95779L20.4738 4.57281C20.767 4.28031 20.767 3.80556 20.4738 3.51231C20.1813 3.21981 19.7065 3.21981 19.4133 3.51231L17.029 5.8973C16.7358 6.19055 16.7358 6.66454 17.029 6.95779Z" fill="black"/>
</svg>

<svg xmlns="http://www.w3.org/2000/svg" width="24" height="24" fill="none" viewBox="0 0 24 24"><path fill="currentColor" fill-rule="evenodd" d="M11.994 4.873a.75.75 0 0 1-.75-.75V.75a.75.75 0 1 1 1.5 0v3.373a.75.75 0 0 1-.75.75m5.656 7.122a5.654 5.654 0 0 1-5.655 5.655 5.66 5.66 0 0 1-5.663-5.655 5.66 5.66 0 0 1 5.663-5.662 5.656 5.656 0 0 1 5.655 5.662M5.898 6.958a.75.75 0 0 0 1.06 0 .75.75 0 0 0 0-1.06L4.573 3.511a.75.75 0 0 0-1.06 1.06zm-1.775 5.785H.75a.75.75 0 1 1 0-1.5h3.373a.75.75 0 1 1 0 1.5m-.61 7.73a.75.75 0 0 0 1.06 0l2.385-2.384a.75.75 0 0 0-1.06-1.06l-2.385 2.384a.75.75 0 0 0 0 1.06m8.48 3.514a.75.75 0 0 1-.75-.75v-3.372a.75.75 0 1 1 1.5 0v3.372a.75.75 0 0 1-.75.75m7.42-3.513a.75.75 0 0 0 1.06 0 .75.75 0 0 0 0-1.06l-2.383-2.386a.75.75 0 0 0-1.06 1.06zm3.824-7.73h-3.373a.75.75 0 1 1 0-1.5h3.373a.75.75 0 1 1 0 1.5m-6.208-5.786a.75.75 0 0 0 1.06 0l2.385-2.385a.75.75 0 1 0-1.06-1.06l-2.385 2.384a.75.75 0 0 0 0 1.06" clip-rule="evenodd"/></svg>
